X: 2121
T: Atlantic Bridge
R: jig
M: 6/8
K: Aminor
eAA BAA|cBA Aed|eAA ed(e|(e3) (efe))|
eBB Bcd|ecA ecA|BAG Aed|BAG A3:|
Aed ecA|fed edc|B.B/.c/B G.B/.c/d|dcB AG_e|
edB ~g3|~a3 ged|c3 Bge|BAG A z2|
Aed ecA|fed edc|BAB G.B/.c/d|dcB AG_e|
edB g^fg|age cAc|BAG Bge|BAG A z2||

